X:1
T: Paddy in London
C:
R:Jig
Q:180
K:D
M:6/8
L:1/16
G2|F2D2F2 A2B2c2|d2e2d2 d2e2f2|A2G2F2 G4A2|B2G2E2 E4G2|F2D2F2 A2B2c2|d2e2d2 d2e2f2|A2G2F2 B2A2G2|F2D2D2 D4g2|
f2d2f2 a2g2f2|g2f2e2 d2B2G2|A2G2F2 G4A2|B2G2E2 E4g2|f2d2f2 a2g2f2|g2f2e2 d2B2G2|A2G2A2 B2A2G2|F2D2D2 D4g2|
f2d2f2 a2g2f2|g2f2e2 d2B2G2|A2G2F2 G4A2|B2G2E2 E4G2|F2D2F2 A2B2c2|d2e2d2 d2e2f2|A2G2F2 B2A2G2|F2D2D2 D4gf|
e2A2A2 A2g2f2|e2d2c2 d4B2|A2G2F2 G4A2|B2G2E2 E4fg|a2g2f2 g2f2e2|d2e2d2 d2e2f2|A2G2F2 B2A2G2|F2D2D2 D4||
